svgs/sharp-solid/venus.svg

<svg xmlns="http://www.w3.org/2000/svg" viewBox="0 0 384 512"><!--! Font Awesome Pro 6.6.0 by @fontawesome - https://fontawesome.com License - https://fontawesome.com/license (Commercial License) Copyright 2024 Fonticons, Inc. --><path d="M80 176a112 112 0 1 1 224 0A112 112 0 1 1 80 176zM224 349.1c81.9-15 144-86.8 144-173.1C368 78.8 289.2 0 192 0S16 78.8 16 176c0 86.3 62.1 158.1 144 173.1l0 34.9-32 0-32 0 0 64 32 0 32 0 0 32 0 32 64 0 0-32 0-32 32 0 32 0 0-64-32 0-32 0 0-34.9z"/></svg>

<svg xmlns="http://www.w3.org/2000/svg" viewBox="0 0 384 512"><!--! Font Awesome Pro 6.4.2 by @fontawesome - https://fontawesome.com License - https://fontawesome.com/license (Commercial License) Copyright 2023 Fonticons, Inc. --><path d="M80 176a112 112 0 1 1 224 0A112 112 0 1 1 80 176zM224 349.1c81.9-15 144-86.8 144-173.1C368 78.8 289.2 0 192 0S16 78.8 16 176c0 86.3 62.1 158.1 144 173.1V384H128 96v64h32 32v32 32h64V480 448h32 32V384H256 224V349.1z"/></svg>
